actions/symbolic/object-ungroup-symbolic.svg

<?xml version="1.0" encoding="UTF-8" standalone="no"?>
<svg
   xmlns:dc="http://purl.org/dc/elements/1.1/"
   xmlns:cc="http://creativecommons.org/ns#"
   xmlns:rdf="http://www.w3.org/1999/02/22-rdf-syntax-ns#"
   xmlns:svg="http://www.w3.org/2000/svg"
   xmlns="http://www.w3.org/2000/svg"
   id="svg7435"
   height="16"
   width="16"
   version="1.1">
  <defs
     id="defs7437" />
  <metadata
     id="metadata7440">
    <rdf:RDF>
      <cc:Work
         rdf:about="">
        <dc:format>image/svg+xml</dc:format>
        <dc:type
           rdf:resource="http://purl.org/dc/dcmitype/StillImage" />
        <dc:title></dc:title>
      </cc:Work>
    </rdf:RDF>
  </metadata>
  <path
     id="rect1311-4-0-7"
     d="M 3,4 V 5 H 6.132812 A 4,4.0000002 0 0 1 6.541016,4 Z"
     style="opacity:0.25;vector-effect:none;fill:#555761;fill-opacity:1;stroke:none;stroke-width:1;stroke-linecap:round;stroke-linejoin:round;stroke-miterlimit:4;stroke-dasharray:none;stroke-dashoffset:0;stroke-opacity:1;marker:none;paint-order:normal" />
  <rect
     y="14"
     x="3"
     height="1"
     width="7"
     id="rect1311-4-0"
     style="opacity:0.25;vector-effect:none;fill:#555761;fill-opacity:1;stroke:none;stroke-width:1;stroke-linecap:round;stroke-linejoin:round;stroke-miterlimit:4;stroke-dasharray:none;stroke-dashoffset:0;stroke-opacity:1;marker:none;paint-order:normal" />
  <rect
     transform="rotate(90)"
     y="-15"
     x="3"
     height="1"
     width="6"
     id="rect1311-8-6"
     style="opacity:0.25;vector-effect:none;fill:#555761;fill-opacity:1;stroke:none;stroke-width:1;stroke-linecap:round;stroke-linejoin:round;stroke-miterlimit:4;stroke-dasharray:none;stroke-dashoffset:0;stroke-opacity:1;marker:none;paint-order:normal" />
  <path
     id="rect1352-5"
     d="M 0.5,3 C 0.223,3 0,3.223 0,3.5 v 2 C 0,5.777 0.223,6 0.5,6 h 2 C 2.777,6 3,5.777 3,5.5 v -2 C 3,3.223 2.777,3 2.5,3 Z m 0.75,1 h 0.5 C 1.8885,4 2,4.1115 2,4.25 v 0.5 C 2,4.8885 1.8885,5 1.75,5 H 1.25 C 1.1115,5 1,4.8885 1,4.75 V 4.25 C 1,4.1115 1.1115,4 1.25,4 Z"
     style="opacity:0.8;vector-effect:none;fill:#555761;fill-opacity:1;stroke:none;stroke-width:1;stroke-linecap:round;stroke-linejoin:round;stroke-miterlimit:4;stroke-dasharray:none;stroke-dashoffset:0;stroke-opacity:1;marker:none;paint-order:normal" />
  <path
     id="rect1352-7-9"
     d="M 13.5,0 C 13.223,0 13,0.223 13,0.5 v 2 C 13,2.777 13.223,3 13.5,3 h 2 C 15.777,3 16,2.777 16,2.5 v -2 C 16,0.223 15.777,0 15.5,0 Z m 0.75,1 h 0.5 C 14.8885,1 15,1.1115 15,1.25 v 0.5 C 15,1.8885 14.8885,2 14.75,2 h -0.5 C 14.1115,2 14,1.8885 14,1.75 V 1.25 C 14,1.1115 14.1115,1 14.25,1 Z"
     style="opacity:0.8;vector-effect:none;fill:#555761;fill-opacity:1;stroke:none;stroke-width:1;stroke-linecap:round;stroke-linejoin:round;stroke-miterlimit:4;stroke-dasharray:none;stroke-dashoffset:0;stroke-opacity:1;marker:none;paint-order:normal" />
  <path
     id="rect1352-2-4"
     d="M 0.5,13 C 0.223,13 0,13.223 0,13.5 v 2 C 0,15.777 0.223,16 0.5,16 h 2 C 2.777,16 3,15.777 3,15.5 v -2 C 3,13.223 2.777,13 2.5,13 Z m 0.75,1 h 0.5 C 1.8885,14 2,14.1115 2,14.25 v 0.5 C 2,14.8885 1.8885,15 1.75,15 H 1.25 C 1.1115,15 1,14.8885 1,14.75 v -0.5 C 1,14.1115 1.1115,14 1.25,14 Z"
     style="opacity:0.8;vector-effect:none;fill:#555761;fill-opacity:1;stroke:none;stroke-width:1;stroke-linecap:round;stroke-linejoin:round;stroke-miterlimit:4;stroke-dasharray:none;stroke-dashoffset:0;stroke-opacity:1;marker:none;paint-order:normal" />
  <path
     id="rect1352-7-7-9"
     d="M 10.5,13 C 10.223,13 10,13.223 10,13.5 v 2 c 0,0.277 0.223,0.5 0.5,0.5 h 2 c 0.277,0 0.5,-0.223 0.5,-0.5 v -2 C 13,13.223 12.777,13 12.5,13 Z m 0.75,1 h 0.5 c 0.1385,0 0.25,0.1115 0.25,0.25 v 0.5 C 12,14.8885 11.8885,15 11.75,15 h -0.5 C 11.1115,15 11,14.8885 11,14.75 v -0.5 C 11,14.1115 11.1115,14 11.25,14 Z"
     style="opacity:0.8;vector-effect:none;fill:#555761;fill-opacity:1;stroke:none;stroke-width:1;stroke-linecap:round;stroke-linejoin:round;stroke-miterlimit:4;stroke-dasharray:none;stroke-dashoffset:0;stroke-opacity:1;marker:none;paint-order:normal" />
  <path
     id="rect1403-0"
     d="M 10.117188,2.0019531 A 4,4.0000002 0 0 0 6,6 4,4.0000002 0 0 0 6.013672,6.2871094 4,4.0000002 0 0 1 6,6 H 3.5 C 3.223,6 3,6.223 3,6.5 v 6 C 3,12.777 3.223,13 3.5,13 h 6 C 9.777,13 10,12.777 10,12.5 V 9.9960938 A 4,4.0000002 0 0 0 14,6 4,4.0000002 0 0 0 10.117188,2.0019531 Z m -0.03125,1 A 3,2.9994524 0 0 1 13,6 3,2.9994524 0 0 1 7,6 3,2.9994524 0 0 1 10.085938,3.0019531 Z M 6.041016,6.5449219 A 4,4.0000002 0 0 0 6.058596,6.6601562 4,4.0000002 0 0 1 6.041016,6.5449219 Z M 4.25,7 H 6.130859 A 4,4.0000002 0 0 0 9,9.8691406 V 11.75 C 9,11.8885 8.8885,12 8.75,12 H 4.25 C 4.1115,12 4,11.8885 4,11.75 V 7.25 C 4,7.1115 4.1115,7 4.25,7 Z"
     style="opacity:1;vector-effect:none;fill:#555761;fill-opacity:1;stroke:none;stroke-width:1;stroke-linecap:round;stroke-linejoin:round;stroke-miterlimit:4;stroke-dasharray:none;stroke-dashoffset:0;stroke-opacity:1;marker:none;paint-order:normal" />
  <path
     style="opacity:0.25;vector-effect:none;fill:#555761;fill-opacity:1;stroke:none;stroke-width:1;stroke-linecap:round;stroke-linejoin:round;stroke-miterlimit:4;stroke-dasharray:none;stroke-dashoffset:0;stroke-opacity:1;marker:none;paint-order:normal"
     id="path8335-9-5-7-4-9"
     d="M 13,6 A 3,2.9994524 0 1 1 7,6 3,2.9994524 0 1 1 13,6 Z" />
  <path
     id="rect1352-7-9-1"
     d="M 13.5,9 C 13.223,9 13,9.223 13,9.5 v 2 c 0,0.277 0.223,0.5 0.5,0.5 h 2 c 0.277,0 0.5,-0.223 0.5,-0.5 v -2 C 16,9.223 15.777,9 15.5,9 Z m 0.75,1 h 0.5 c 0.1385,0 0.25,0.1115 0.25,0.25 v 0.5 C 15,10.8885 14.8885,11 14.75,11 h -0.5 C 14.1115,11 14,10.8885 14,10.75 v -0.5 C 14,10.1115 14.1115,10 14.25,10 Z"
     style="opacity:0.8;vector-effect:none;fill:#555761;fill-opacity:1;stroke:none;stroke-width:1;stroke-linecap:round;stroke-linejoin:round;stroke-miterlimit:4;stroke-dasharray:none;stroke-dashoffset:0;stroke-opacity:1;marker:none;paint-order:normal" />
  <rect
     transform="rotate(90)"
     y="-2"
     x="6"
     height="1"
     width="7"
     id="rect1311-4-0-1"
     style="opacity:0.25;vector-effect:none;fill:#555761;fill-opacity:1;stroke:none;stroke-width:1;stroke-linecap:round;stroke-linejoin:round;stroke-miterlimit:4;stroke-dasharray:none;stroke-dashoffset:0;stroke-opacity:1;marker:none;paint-order:normal" />
  <path
     id="rect1311-4-0-1-5"
     d="M 12,9.4550781 A 4,4.0000002 0 0 1 11,9.8632812 V 13 h 1 z"
     style="opacity:0.25;vector-effect:none;fill:#555761;fill-opacity:1;stroke:none;stroke-width:1;stroke-linecap:round;stroke-linejoin:round;stroke-miterlimit:4;stroke-dasharray:none;stroke-dashoffset:0;stroke-opacity:1;marker:none;paint-order:normal" />
  <path
     id="rect1352-7-9-7"
     d="M 4.5,0 C 4.223,0 4,0.223 4,0.5 v 2 C 4,2.777 4.223,3 4.5,3 h 2 C 6.777,3 7,2.777 7,2.5 v -2 C 7,0.223 6.777,0 6.5,0 Z m 0.75,1 h 0.5 C 5.8885,1 6,1.1115 6,1.25 v 0.5 C 6,1.8885 5.8885,2 5.75,2 H 5.25 C 5.1115,2 5,1.8885 5,1.75 V 1.25 C 5,1.1115 5.1115,1 5.25,1 Z"
     style="opacity:0.8;vector-effect:none;fill:#555761;fill-opacity:1;stroke:none;stroke-width:1;stroke-linecap:round;stroke-linejoin:round;stroke-miterlimit:4;stroke-dasharray:none;stroke-dashoffset:0;stroke-opacity:1;marker:none;paint-order:normal" />
  <path
     id="rect1352-7-9-7-6"
     d="M 4.5,9 C 4.223,9 4,9.223 4,9.5 v 2 C 4,11.777 4.223,12 4.5,12 h 2 C 6.777,12 7,11.777 7,11.5 v -2 C 7,9.223 6.777,9 6.5,9 Z m 0.75,1 h 0.5 C 5.8885,10 6,10.1115 6,10.25 v 0.5 C 6,10.8885 5.8885,11 5.75,11 H 5.25 C 5.1115,11 5,10.8885 5,10.75 v -0.5 C 5,10.1115 5.1115,10 5.25,10 Z"
     style="opacity:0.8;vector-effect:none;fill:#555761;fill-opacity:1;stroke:none;stroke-width:1;stroke-linecap:round;stroke-linejoin:round;stroke-miterlimit:4;stroke-dasharray:none;stroke-dashoffset:0;stroke-opacity:1;marker:none;paint-order:normal" />
  <rect
     transform="rotate(90)"
     y="-6"
     x="3"
     height="1"
     width="6"
     id="rect1311-8-6-7"
     style="opacity:0.25;vector-effect:none;fill:#555761;fill-opacity:1;stroke:none;stroke-width:1;stroke-linecap:round;stroke-linejoin:round;stroke-miterlimit:4;stroke-dasharray:none;stroke-dashoffset:0;stroke-opacity:1;marker:none;paint-order:normal" />
  <rect
     transform="scale(-1)"
     y="-11"
     x="-13"
     height="1"
     width="6"
     id="rect1311-8-6-3"
     style="opacity:0.25;vector-effect:none;fill:#555761;fill-opacity:1;stroke:none;stroke-width:1;stroke-linecap:round;stroke-linejoin:round;stroke-miterlimit:4;stroke-dasharray:none;stroke-dashoffset:0;stroke-opacity:1;marker:none;paint-order:normal" />
  <rect
     transform="scale(-1)"
     y="-2"
     x="-13"
     height="1"
     width="6"
     id="rect1311-8-6-7-6"
     style="opacity:0.25;vector-effect:none;fill:#555761;fill-opacity:1;stroke:none;stroke-width:1;stroke-linecap:round;stroke-linejoin:round;stroke-miterlimit:4;stroke-dasharray:none;stroke-dashoffset:0;stroke-opacity:1;marker:none;paint-order:normal" />
</svg>

<svg
        xmlns='http://www.w3.org/2000/svg'
        xmlns:svg='http://www.w3.org/2000/svg'
        id='svg7435'
        width='16'
        height='16'>
  <path
          id='rect1311-4-0-7'
          opacity='0.25'
          fill='url(#gpa:foreground) #555761'
          fill-opacity='1'
          fill-rule='nonzero'
          stroke='none'
          stroke-opacity='1'
          stroke-width='1'
          stroke-linecap='round'
          stroke-linejoin='round'
          stroke-miterlimit='4'
          stroke-dasharray='none'
          stroke-dashoffset='0'
          marker-start='none'
          marker-mid='none'
          marker-end='none'
          paint-order='normal'
          d='M 3 4 L 3 5 L 6.13281 5 A 4 4 0 0 1 6.54102 4 Z'
          class="foreground">
  </path>
  <rect
          id='rect1311-4-0'
          opacity='0.25'
          fill='url(#gpa:foreground) #555761'
          fill-opacity='1'
          fill-rule='nonzero'
          stroke='none'
          stroke-opacity='1'
          stroke-width='1'
          stroke-linecap='round'
          stroke-linejoin='round'
          stroke-miterlimit='4'
          stroke-dasharray='none'
          stroke-dashoffset='0'
          marker-start='none'
          marker-mid='none'
          marker-end='none'
          paint-order='normal'
          x='3'
          y='14'
          width='7'
          height='1'
          class="foreground">
  </rect>
  <rect
          id='rect1311-8-6'
          transform='rotate(90, 0, 0)'
          opacity='0.25'
          fill='url(#gpa:foreground) #555761'
          fill-opacity='1'
          fill-rule='nonzero'
          stroke='none'
          stroke-opacity='1'
          stroke-width='1'
          stroke-linecap='round'
          stroke-linejoin='round'
          stroke-miterlimit='4'
          stroke-dasharray='none'
          stroke-dashoffset='0'
          marker-start='none'
          marker-mid='none'
          marker-end='none'
          paint-order='normal'
          x='3'
          y='-15'
          width='6'
          height='1'
          class="foreground">
  </rect>
  <path
          id='rect1352-5'
          opacity='0.8'
          fill='url(#gpa:foreground) #555761'
          fill-opacity='1'
          fill-rule='nonzero'
          stroke='none'
          stroke-opacity='1'
          stroke-width='1'
          stroke-linecap='round'
          stroke-linejoin='round'
          stroke-miterlimit='4'
          stroke-dasharray='none'
          stroke-dashoffset='0'
          marker-start='none'
          marker-mid='none'
          marker-end='none'
          paint-order='normal'
          d='M 0.5 3 C 0.223 3, 0 3.223, 0 3.5 L 0 5.5 C 0 5.777, 0.223 6, 0.5 6 L 2.5 6 C 2.777 6, 3 5.777, 3 5.5 L 3 3.5 C 3 3.223, 2.777 3, 2.5 3 Z M 1.25 4 L 1.75 4 C 1.8885 4, 2 4.1115, 2 4.25 L 2 4.75 C 2 4.8885, 1.8885 5, 1.75 5 L 1.25 5 C 1.1115 5, 1 4.8885, 1 4.75 L 1 4.25 C 1 4.1115, 1.1115 4, 1.25 4 Z'
          class="foreground">
  </path>
  <path
          id='rect1352-7-9'
          opacity='0.8'
          fill='url(#gpa:foreground) #555761'
          fill-opacity='1'
          fill-rule='nonzero'
          stroke='none'
          stroke-opacity='1'
          stroke-width='1'
          stroke-linecap='round'
          stroke-linejoin='round'
          stroke-miterlimit='4'
          stroke-dasharray='none'
          stroke-dashoffset='0'
          marker-start='none'
          marker-mid='none'
          marker-end='none'
          paint-order='normal'
          d='M 13.5 0 C 13.223 0, 13 0.223, 13 0.5 L 13 2.5 C 13 2.777, 13.223 3, 13.5 3 L 15.5 3 C 15.777 3, 16 2.777, 16 2.5 L 16 0.5 C 16 0.223, 15.777 0, 15.5 0 Z M 14.25 1 L 14.75 1 C 14.8885 1, 15 1.1115, 15 1.25 L 15 1.75 C 15 1.8885, 14.8885 2, 14.75 2 L 14.25 2 C 14.1115 2, 14 1.8885, 14 1.75 L 14 1.25 C 14 1.1115, 14.1115 1, 14.25 1 Z'
          class="foreground">
  </path>
  <path
          id='rect1352-2-4'
          opacity='0.8'
          fill='url(#gpa:foreground) #555761'
          fill-opacity='1'
          fill-rule='nonzero'
          stroke='none'
          stroke-opacity='1'
          stroke-width='1'
          stroke-linecap='round'
          stroke-linejoin='round'
          stroke-miterlimit='4'
          stroke-dasharray='none'
          stroke-dashoffset='0'
          marker-start='none'
          marker-mid='none'
          marker-end='none'
          paint-order='normal'
          d='M 0.5 13 C 0.223 13, 0 13.223, 0 13.5 L 0 15.5 C 0 15.777, 0.223 16, 0.5 16 L 2.5 16 C 2.777 16, 3 15.777, 3 15.5 L 3 13.5 C 3 13.223, 2.777 13, 2.5 13 Z M 1.25 14 L 1.75 14 C 1.8885 14, 2 14.1115, 2 14.25 L 2 14.75 C 2 14.8885, 1.8885 15, 1.75 15 L 1.25 15 C 1.1115 15, 1 14.8885, 1 14.75 L 1 14.25 C 1 14.1115, 1.1115 14, 1.25 14 Z'
          class="foreground">
  </path>
  <path
          id='rect1352-7-7-9'
          opacity='0.8'
          fill='url(#gpa:foreground) #555761'
          fill-opacity='1'
          fill-rule='nonzero'
          stroke='none'
          stroke-opacity='1'
          stroke-width='1'
          stroke-linecap='round'
          stroke-linejoin='round'
          stroke-miterlimit='4'
          stroke-dasharray='none'
          stroke-dashoffset='0'
          marker-start='none'
          marker-mid='none'
          marker-end='none'
          paint-order='normal'
          d='M 10.5 13 C 10.223 13, 10 13.223, 10 13.5 L 10 15.5 C 10 15.777, 10.223 16, 10.5 16 L 12.5 16 C 12.777 16, 13 15.777, 13 15.5 L 13 13.5 C 13 13.223, 12.777 13, 12.5 13 Z M 11.25 14 L 11.75 14 C 11.8885 14, 12 14.1115, 12 14.25 L 12 14.75 C 12 14.8885, 11.8885 15, 11.75 15 L 11.25 15 C 11.1115 15, 11 14.8885, 11 14.75 L 11 14.25 C 11 14.1115, 11.1115 14, 11.25 14 Z'
          class="foreground">
  </path>
  <path
          id='rect1403-0'
          opacity='1'
          fill='url(#gpa:foreground) #555761'
          fill-opacity='1'
          fill-rule='nonzero'
          stroke='none'
          stroke-opacity='1'
          stroke-width='1'
          stroke-linecap='round'
          stroke-linejoin='round'
          stroke-miterlimit='4'
          stroke-dasharray='none'
          stroke-dashoffset='0'
          marker-start='none'
          marker-mid='none'
          marker-end='none'
          paint-order='normal'
          d='M 10.1172 2.00195 A 4 4 0 0 0 6 6 A 4 4 0 0 0 6.01367 6.28711 A 4 4 0 0 1 6 6 L 3.5 6 C 3.223 6, 3 6.223, 3 6.5 L 3 12.5 C 3 12.777, 3.223 13, 3.5 13 L 9.5 13 C 9.777 13, 10 12.777, 10 12.5 L 10 9.99609 A 4 4 0 0 0 14 6 A 4 4 0 0 0 10.1172 2.00195 Z M 10.0859 3.00195 A 3 2.99945 0 0 1 13 6 A 3 2.99945 0 0 1 7 6 A 3 2.99945 0 0 1 10.0859 3.00195 Z M 6.04102 6.54492 A 4 4 0 0 0 6.0586 6.66016 A 4 4 0 0 1 6.04102 6.54492 Z M 4.25 7 L 6.13086 7 A 4 4 0 0 0 9 9.86914 L 9 11.75 C 9 11.8885, 8.8885 12, 8.75 12 L 4.25 12 C 4.1115 12, 4 11.8885, 4 11.75 L 4 7.25 C 4 7.1115, 4.1115 7, 4.25 7 Z'
          class="foreground">
  </path>
  <path
          id='path8335-9-5-7-4-9'
          opacity='0.25'
          fill='url(#gpa:foreground) #555761'
          fill-opacity='1'
          fill-rule='nonzero'
          stroke='none'
          stroke-opacity='1'
          stroke-width='1'
          stroke-linecap='round'
          stroke-linejoin='round'
          stroke-miterlimit='4'
          stroke-dasharray='none'
          stroke-dashoffset='0'
          marker-start='none'
          marker-mid='none'
          marker-end='none'
          paint-order='normal'
          d='M 13 6 A 3 2.99945 0 1 1 7 6 A 3 2.99945 0 1 1 13 6 Z'
          class="foreground">
  </path>
  <path
          id='rect1352-7-9-1'
          opacity='0.8'
          fill='url(#gpa:foreground) #555761'
          fill-opacity='1'
          fill-rule='nonzero'
          stroke='none'
          stroke-opacity='1'
          stroke-width='1'
          stroke-linecap='round'
          stroke-linejoin='round'
          stroke-miterlimit='4'
          stroke-dasharray='none'
          stroke-dashoffset='0'
          marker-start='none'
          marker-mid='none'
          marker-end='none'
          paint-order='normal'
          d='M 13.5 9 C 13.223 9, 13 9.223, 13 9.5 L 13 11.5 C 13 11.777, 13.223 12, 13.5 12 L 15.5 12 C 15.777 12, 16 11.777, 16 11.5 L 16 9.5 C 16 9.223, 15.777 9, 15.5 9 Z M 14.25 10 L 14.75 10 C 14.8885 10, 15 10.1115, 15 10.25 L 15 10.75 C 15 10.8885, 14.8885 11, 14.75 11 L 14.25 11 C 14.1115 11, 14 10.8885, 14 10.75 L 14 10.25 C 14 10.1115, 14.1115 10, 14.25 10 Z'
          class="foreground">
  </path>
  <rect
          id='rect1311-4-0-1'
          transform='rotate(90, 0, 0)'
          opacity='0.25'
          fill='url(#gpa:foreground) #555761'
          fill-opacity='1'
          fill-rule='nonzero'
          stroke='none'
          stroke-opacity='1'
          stroke-width='1'
          stroke-linecap='round'
          stroke-linejoin='round'
          stroke-miterlimit='4'
          stroke-dasharray='none'
          stroke-dashoffset='0'
          marker-start='none'
          marker-mid='none'
          marker-end='none'
          paint-order='normal'
          x='6'
          y='-2'
          width='7'
          height='1'
          class="foreground">
  </rect>
  <path
          id='rect1311-4-0-1-5'
          opacity='0.25'
          fill='url(#gpa:foreground) #555761'
          fill-opacity='1'
          fill-rule='nonzero'
          stroke='none'
          stroke-opacity='1'
          stroke-width='1'
          stroke-linecap='round'
          stroke-linejoin='round'
          stroke-miterlimit='4'
          stroke-dasharray='none'
          stroke-dashoffset='0'
          marker-start='none'
          marker-mid='none'
          marker-end='none'
          paint-order='normal'
          d='M 12 9.45508 A 4 4 0 0 1 11 9.86328 L 11 13 L 12 13 Z'
          class="foreground">
  </path>
  <path
          id='rect1352-7-9-7'
          opacity='0.8'
          fill='url(#gpa:foreground) #555761'
          fill-opacity='1'
          fill-rule='nonzero'
          stroke='none'
          stroke-opacity='1'
          stroke-width='1'
          stroke-linecap='round'
          stroke-linejoin='round'
          stroke-miterlimit='4'
          stroke-dasharray='none'
          stroke-dashoffset='0'
          marker-start='none'
          marker-mid='none'
          marker-end='none'
          paint-order='normal'
          d='M 4.5 0 C 4.223 0, 4 0.223, 4 0.5 L 4 2.5 C 4 2.777, 4.223 3, 4.5 3 L 6.5 3 C 6.777 3, 7 2.777, 7 2.5 L 7 0.5 C 7 0.223, 6.777 0, 6.5 0 Z M 5.25 1 L 5.75 1 C 5.8885 1, 6 1.1115, 6 1.25 L 6 1.75 C 6 1.8885, 5.8885 2, 5.75 2 L 5.25 2 C 5.1115 2, 5 1.8885, 5 1.75 L 5 1.25 C 5 1.1115, 5.1115 1, 5.25 1 Z'
          class="foreground">
  </path>
  <path
          id='rect1352-7-9-7-6'
          opacity='0.8'
          fill='url(#gpa:foreground) #555761'
          fill-opacity='1'
          fill-rule='nonzero'
          stroke='none'
          stroke-opacity='1'
          stroke-width='1'
          stroke-linecap='round'
          stroke-linejoin='round'
          stroke-miterlimit='4'
          stroke-dasharray='none'
          stroke-dashoffset='0'
          marker-start='none'
          marker-mid='none'
          marker-end='none'
          paint-order='normal'
          d='M 4.5 9 C 4.223 9, 4 9.223, 4 9.5 L 4 11.5 C 4 11.777, 4.223 12, 4.5 12 L 6.5 12 C 6.777 12, 7 11.777, 7 11.5 L 7 9.5 C 7 9.223, 6.777 9, 6.5 9 Z M 5.25 10 L 5.75 10 C 5.8885 10, 6 10.1115, 6 10.25 L 6 10.75 C 6 10.8885, 5.8885 11, 5.75 11 L 5.25 11 C 5.1115 11, 5 10.8885, 5 10.75 L 5 10.25 C 5 10.1115, 5.1115 10, 5.25 10 Z'
          class="foreground">
  </path>
  <rect
          id='rect1311-8-6-7'
          transform='rotate(90, 0, 0)'
          opacity='0.25'
          fill='url(#gpa:foreground) #555761'
          fill-opacity='1'
          fill-rule='nonzero'
          stroke='none'
          stroke-opacity='1'
          stroke-width='1'
          stroke-linecap='round'
          stroke-linejoin='round'
          stroke-miterlimit='4'
          stroke-dasharray='none'
          stroke-dashoffset='0'
          marker-start='none'
          marker-mid='none'
          marker-end='none'
          paint-order='normal'
          x='3'
          y='-6'
          width='6'
          height='1'
          class="foreground">
  </rect>
  <rect
          id='rect1311-8-6-3'
          transform='scale(-1, -1)'
          opacity='0.25'
          fill='url(#gpa:foreground) #555761'
          fill-opacity='1'
          fill-rule='nonzero'
          stroke='none'
          stroke-opacity='1'
          stroke-width='1'
          stroke-linecap='round'
          stroke-linejoin='round'
          stroke-miterlimit='4'
          stroke-dasharray='none'
          stroke-dashoffset='0'
          marker-start='none'
          marker-mid='none'
          marker-end='none'
          paint-order='normal'
          x='-13'
          y='-11'
          width='6'
          height='1'
          class="foreground">
  </rect>
  <rect
          id='rect1311-8-6-7-6'
          transform='scale(-1, -1)'
          opacity='0.25'
          fill='url(#gpa:foreground) #555761'
          fill-opacity='1'
          fill-rule='nonzero'
          stroke='none'
          stroke-opacity='1'
          stroke-width='1'
          stroke-linecap='round'
          stroke-linejoin='round'
          stroke-miterlimit='4'
          stroke-dasharray='none'
          stroke-dashoffset='0'
          marker-start='none'
          marker-mid='none'
          marker-end='none'
          paint-order='normal'
          x='-13'
          y='-2'
          width='6'
          height='1'
          class="foreground">
  </rect>
</svg>
